exported-svg/rotate-cw.svg

<svg height="24" viewBox="0 0 24 24" width="24" xmlns="http://www.w3.org/2000/svg"><path d="m21.9967112 8.34126831v-4.84235893c0-.27614237.2238577-.5.5-.5.2761424 0 .5.22385763.5.5v6c0 .27614238-.2238576.5-.5.5h-6c-.2761423 0-.5-.22385762-.5-.5 0-.27614237.2238577-.5.5-.5h4.7397733l-3.7234383-3.5065583c-2.6762841-2.67797527-6.8011235-3.26305051-10.11655786-1.43495224s-5.02210341 5.62861057-4.18576692 9.32111506c.83633649 3.6925045 4.01403552 6.3867283 7.79360678 6.6078381 3.7795712.2211099 7.2497497-2.0842045 8.5109402-5.6540009.0919876-.2603707.3776305-.3968721.6380011-.3048845.2603707.0919876.3968722.3776304.3048846.6380011-1.4095659 3.9897725-5.2880007 6.5663003-9.5122274 6.3191775-4.22422665-.2471227-7.77577262-3.258314-8.71050164-7.3852308-.93472902-4.12691683.97272463-8.37454822 4.67821009-10.41771688 3.70548545-2.04316865 8.31560005-1.38926103 11.29585655 1.5932042z"/></svg>

<?xml version="1.0" encoding="UTF-8"?>
<svg width="24px" height="24px" viewBox="0 0 24 24" version="1.1" xmlns="http://www.w3.org/2000/svg" xmlns:xlink="http://www.w3.org/1999/xlink">
    <!-- Generator: Sketch 55.2 (78181) - https://sketchapp.com -->
    <title>rotate-cw</title>
    <desc>Created with Sketch.</desc>
    <g id="rotate-cw" stroke="none" stroke-width="1" fill="none" fill-rule="evenodd">
        <path d="M21.9967112,8.34126831 L21.9967112,3.49890938 C21.9967112,3.22276701 22.2205689,2.99890938 22.4967112,2.99890938 C22.7728536,2.99890938 22.9967112,3.22276701 22.9967112,3.49890938 L22.9967112,9.49890938 C22.9967112,9.77505176 22.7728536,9.99890938 22.4967112,9.99890938 L16.4967112,9.99890938 C16.2205689,9.99890938 15.9967112,9.77505176 15.9967112,9.49890938 C15.9967112,9.22276701 16.2205689,8.99890938 16.4967112,8.99890938 L21.2364845,8.99890938 L17.5130462,5.49235108 C14.8367621,2.81437581 10.7119227,2.22930057 7.39648834,4.05739884 C4.08105398,5.88549711 2.37438493,9.68600941 3.21072142,13.3785139 C4.04705791,17.0710184 7.22475694,19.7652422 11.0043282,19.986352 C14.7838994,20.2074619 18.2540779,17.9021475 19.5152684,14.3323511 C19.607256,14.0719804 19.8928989,13.935479 20.1532695,14.0274666 C20.4136402,14.1194542 20.5501417,14.405097 20.4581541,14.6654677 C19.0485882,18.6552402 15.1701534,21.231768 10.9459267,20.9846452 C6.72170005,20.7375225 3.17015408,17.7263312 2.23542506,13.5994144 C1.30069604,9.47249757 3.20814969,5.22486618 6.91363515,3.18169752 C10.6191206,1.13852887 15.2292352,1.79243649 18.2094917,4.77490172 L21.9967112,8.34126831 Z" id="arrow" fill="#000000" fill-rule="nonzero"></path>
    </g>
</svg>
